X: 102
T:Missa Mon seul plaisir / Gloria
N: Derived from Jos0902b-Missa_Mon_seul_plaisir-Gloria.krn
C: Josquin des Prez
%%abc-version 2.0
%%abcx-abcm2ps-target-version 5.9.1 (29 Sep 2008)
%%abc-creator hum2abc beta
%%abcx-conversion-date 2019/02/12 16:15:43
%%abc-edited-by Jesse Rodin
%%abc-edited-by Reinier de Valk; Victoria Chang 2012/03/28
%%abcx-initial-encoding-date 2012/03/28/
%%humdrum-veritas 2575699611
%%humdrum-veritas-data 2058040795
%%linebreak <none>
%%barnumbers 0
L: 1/4
M: 2/1
Q: 1/2=120
%%staves {1 2}
V: 1 clef=treble-8
V: 2 clef=bass
K: C
[V:1] G4G4 | 
[V:2] G,8 | 
[V:1] F4F4 | 
[V:2] D,4D,4 | 
[V:1] G4AGc2- | 
[V:2] E,4C,4 | 
[V:1] c2BAB4 | 
[V:2] G,4G,2G,2 | 
[V:1] c4z2c2 | 
[V:2] C,4z2C,2 | 
[V:1] B2A2B2G2 | 
[V:2] G,2F,2G,2E,2 | 
[V:1] A4z2A2 | 
[V:2] D,4z2D,2 | 
[V:1] B2B2c2c2 | 
[V:2] G,2G,2C,2C,2 | 
[V:1] d2e2d2d2 | 
[V:2] G,2E,2F,2G,2 | 
[V:1] c4c4 | 
[V:2] C,4z2C,2- | 
[V:1] c2c4c2 | 
[V:2] C,2C,2C,2C,2 | 
[V:1] c4z2c2 | 
[V:2] A,,4A,,2A,,2 | 
[V:1] c2A2B2c2 | 
[V:2] A,,2D,4C,2 | 
[V:1] d3cBAG2 | 
[V:2] B,,3A,,G,,4 | 
[V:1] B4A4 | 
[V:2] G,4D,4 | 
[V:1] G4z2G2 | 
[V:2] G,,4C,4 | 
[V:1] A4G2E2 | 
[V:2] A,,2C,4C,2 | 
[V:1] A2G2c2BA | 
[V:2] A,,2C,3D,E,F, | 
[V:1] B2G2A2F2 | 
[V:2] G,2E,2D,4 | 
[V:1] G4z2c2 | 
[V:2] C,4z2C,2 | 
[V:1] d2B2c4 | 
[V:2] G,4A,4 | 
[V:1] d4G2d2 | 
[V:2] G,6D,2 | 
[V:1] B2c2A4 | 
[V:2] E,2C,2D,4 | 
[V:1] G8 | 
[V:2] G,,4z2G,,2 | 
[V:1] z8 | 
[V:2] C,2C,2C,2C,2 | 
[V:1] z8 | 
[V:2] D,4C,2D,2 | 
[V:1] z8 | 
[V:2] G,,4A,,4 | 
[V:1] z4G2c2- | 
[V:2] G,,2C,2C,2C,2 | 
[V:1] c2c2d2e2- | 
[V:2] A,,2A,,2D,2C,2 | 
[V:1] e2c2d3c | 
[V:2] E,2F,2D,4 | 
[V:1] BAG2A4 | 
[V:2] G,2F,E,D,C,D,2 | 
[V:1] G4z4 | 
[V:2] G,,8 | 
[V:1] (3B4B4B4 | 
[V:2] (3G,4G,4G,4 | 
[V:1] (3A4B4c4 | 
[V:2] (3D,4G,4E,4 | 
[V:1] (3:2:4d6c2B2A2 | 
[V:2] (3F,4D,4G,4- | 
[V:1] (3G4d6c2 | 
[V:2] (3:2:5G,2F,2E,2D,2E,4 | 
[V:1] (3:2:4c6B AB4 | 
[V:2] (3:2:2C,4D,8 | 
[V:1] c4z4 | 
[V:2] C,6B,,A,, | 
[V:1] d3cBAB2- | 
[V:2] G,,4G,4 | 
[V:1] B2A4G2 | 
[V:2] F,4E,4 | 
[V:1] !fermata!A8 ||  
[V:2] !fermata!D,8 ||  
[V:1]  [K:C] [K:clef=treble-8][M:2/1]z8 | 
[V:2]  [K:C] [K:clef=bass][M:2/1]G,,4G,,2G,,2 | 
[V:1] z8 | 
[V:2] C,4C,2C,2 | 
[V:1] z8 | 
[V:2] A,,4A,,2A,,2 | 
[V:1] z8 | 
[V:2] D,3C,D,C,B,,A,, | 
[V:1] z8 | 
[V:2] G,,4z2F,2 | 
[V:1] z8 | 
[V:2] E,2G,3F,E,D, | 
[V:1] z8 | 
[V:2] C,3B,,C,2A,,2 | 
[V:1] z8 | 
[V:2] D,3C,D,C,B,,A,, | 
[V:1] z8 | 
[V:2] G,,2B,,2A,,4 | 
[V:1] z8 | 
[V:2] G,,4z2G,2- | 
[V:1] z8 | 
[V:2] G,2F,E,F,2G,2- | 
[V:1] z8 | 
[V:2] G,F,E,D,C,2E,2 | 
[V:1] z8 | 
[V:2] D,2C,2G,2F,E, | 
[V:1] z8 | 
[V:2] D,2F,2E,4 | 
[V:1] z8 | 
[V:2] D,4z2A,,2 | 
[V:1] z8 | 
[V:2] D,2F,2E,4 | 
[V:1] z8 | 
[V:2] D,2C,B,,A,,2G,,2 | 
[V:1] z8 | 
[V:2] G,2F,E,F,2G,2 | 
[V:1] z8 | 
[V:2] E,2D,C,D,2E,2 | 
[V:1] z8 | 
[V:2] C,2E,2D,2C,2 | 
[V:1] z8 | 
[V:2] G,4F,2E,2- | 
[V:1] z8 | 
[V:2] E,D,C,B,,A,,2D,2 | 
[V:1] z8 | 
[V:2] C,2D,2E,4 | 
[V:1] z8 | 
[V:2] D,8 | 
[V:1] z8 | 
[V:2] z2F,4E,D, | 
[V:1] z8 | 
[V:2] C,D,E,F,G,2F,E, | 
[V:1] z8 | 
[V:2] D,3E,F,2E,D, | 
[V:1] z8 | 
[V:2] C,3D,E,2C,2 | 
[V:1] z8 | 
[V:2] D,3C,B,,A,,G,,2- | 
[V:1] z8 | 
[V:2] G,,2G,4^F,2 | 
[V:1] z8 ||  
[V:2] !fermata!G,8 ||  
[V:1]  [K:C] [K:clef=treble-8][M:2/1]G8 | 
[V:2]  [K:C] [K:clef=bass][M:2/1]G,8 | 
[V:1] F4F4 | 
[V:2] D,4D,4 | 
[V:1] G4G4 | 
[V:2] E,4E,4 | 
[V:1] A4A4 | 
[V:2] D,8 | 
[V:1] (3G6B4B2 | 
[V:2] (3G,,6G,4G,2 | 
[V:1] (3:2:4A2d4c4B2 | 
[V:2] (3:2:4D,4F,2E,2D,4 | 
[V:1] c4z2c2 | 
[V:2] C,2C,2A,,2A,,2 | 
[V:1] A2A2B2A2 | 
[V:2] D,2D,2G,,2D,2 | 
[V:1] cBAGA4 | 
[V:2] C,2E,2D,4 | 
[V:1] G4z2d2- | 
[V:2] G,,8- | 
[V:1] d4B4 | 
[V:2] G,,4z2G,2- | 
[V:1] z2B2d4 | 
[V:2] G,2G,2G,2G,2 | 
[V:1] B2B2d4 | 
[V:2] G,2G,2G,2G,2 | 
[V:1] B2B2GABc | 
[V:2] G,4G,4 | 
[V:1] d2cBA4 | 
[V:2] D,4z4 | 
[V:1] G2d3cB2 | 
[V:2] z8 | 
[V:1] A4z2A2 | 
[V:2] z4D,4 | 
[V:1] B2A2B2c2 | 
[V:2] G,2F,2G,2E,2 | 
[V:1] A2B4AG | 
[V:2] F,2D,4C,B,, | 
[V:1] F2G4^F2 | 
[V:2] A,,2G,,2A,,4 | 
[V:1] G4(3:2:2G4B2 | 
[V:2] G,,4(3:2:2G,,4G,2 | 
[V:1] (3:2:5A2c4d2e2d2 | 
[V:2] (3:2:5F,4A,2G,2E,2G,2 | 
[V:1] (3:2:4d4B2A2c4 | 
[V:2] (3:2:4D,4G,2F,4A,2 | 
[V:1] (3:2:4d4c2B2A4 | 
[V:2] (3:2:5G,2D,2F,2G,2D,4 | 
[V:1] G8 | 
[V:2] G,,8- | 
[V:1] z2B2B2G2 | 
[V:2] G,,8 | 
[V:1] d4d2c2 | 
[V:2] z8 | 
[V:1] B4A4 | 
[V:2] E,4F,2F,2 | 
[V:1] z4z2G2 | 
[V:2] F,2E,D,E,4 | 
[V:1] A2F2G2d2- | 
[V:2] D,4G,,4 | 
[V:1] dcABc3B | 
[V:2] z2A,3G,E,F, | 
[V:1] GABcd2G2 | 
[V:2] G,2D,2F,2G,2 | 
[V:1] A2B2A4 | 
[V:2] D,2B,,2C,2D,2 | 
[V:1] G8 | 
[V:2] G,,8 | 
[V:1] z4B4 | 
[V:2] z4G,4 | 
[V:1] B4B4 | 
[V:2] E,4G,4 | 
[V:1] A8 | 
[V:2] D,8 | 
[V:1] z8 | 
[V:2] z2G,,2C,4- | 
[V:1] z8 | 
[V:2] C,2B,,2A,,2A,,2- | 
[V:1] z8 | 
[V:2] A,,2G,,2A,,2C,2 | 
[V:1] z8 | 
[V:2] B,,4A,,4 | 
[V:1] z8 | 
[V:2] E,4A,,2A,2- | 
[V:1] z2G2c4- | 
[V:2] A,2G,2A,4 | 
[V:1] c2B2A2A2- | 
[V:2] E,4z2A,,2 | 
[V:1] A2G2A4 | 
[V:2] E,4F,4 | 
[V:1] B4c4 | 
[V:2] E,4C,4 | 
[V:1] A4G4 | 
[V:2] D,4G,,4 | 
[V:1] F3GE4 | 
[V:2] A,,8 | 
[V:1] D4z2D2 | 
[V:2] D,4G,,4 | 
[V:1] G2G2G2A2 | 
[V:2] z2G,,2G,,2G,,2 | 
[V:1] B6AB | 
[V:2] G,2F,E,D,4 | 
[V:1] c6B2- | 
[V:2] C,6G,2- | 
[V:1] BAG4^F2 | 
[V:2] G,2E,2D,4 | 
[V:1] G2B6 | 
[V:2] G,,4z2G,,2 | 
[V:1] A2A2G2G2- | 
[V:2] C,2C,2B,,2B,,2 | 
[V:1] GFFEG2A2 | 
[V:2] A,,2A,,2G,,2F,2 | 
[V:1] B2c2A2F2 | 
[V:2] G,2C,2D,2F,2 | 
[V:1] G4A4 | 
[V:2] E,4D,4 | 
[V:1] G8 |]  
[V:2] !fermata!G,,8 |]  



